X: 27
T: Club C\'eil\'i
M: 6/8
L: 1/8
R: Jig
K: G
A|B2B BAB|dBA G2B|d2d d2B|ded B2A|
BcB BAB|dBA G2B|ded cBA|1 G3 G2:|2 G3 GBd||
g2g f2f|e2e edB|d3 d2B|ded B2d|
g2g f2f|efe edB|1ded cBA|1 G3 GBd :|2\
dge dge|dge dBA||
